X:4
T:Canon with fifth down, staying in Bb
M:3/2
L:1/2
Q:1/2=100
K:Bb
%%MIDI program 1 41 % Viola
%%MIDI program 2 41 % Viola
%%MIDI program 3 41 % Viola
%%MIDI program 4 41 % Viola
V:1
B|(d/>e/d)c|(B/>c/d)e|(f/>e/d)c|B2B|B2F|(G/>A/B)G|(FB)F|B2d|f2f|(d/>c/B)B|(d/>e/f)f|f2
B|(d/>e/f)f|(gf)(3(B/c/d/)|(cB)(3(A/B/c/)|(d/>c/B)d|(BF)F|(B/>c/d)B|(AB)(3(c/B/A/)|(B/>c/d)d|(f/e/d/c/)(B/A/)|(B/c/d/e/)(f/e/)|(d/f/B/d/)(3(c/B/A/)|B2
V:2
z|zz
E|(G/2>A/2G)F|(E/2>F/2G)A|(B/2>A/2G)F|E2
E|E2B,|(C/2>D/2E)C|(B,E)B,|E2
G|B2B|(G/2>F/2E)E|(G/2>A/2B)B|B2
E|(G/2>A/2B)B|(cB)(3(E/2F/2G/2)|(FE)(3(D/2E/2F/2)|(G/2>F/2E)
G|(EB,)B,|(E/2>F/2G)E|(DE)(3(F/2E/2D/2)|(E/2>F/2G)
G|(B/2A/2G/2F/2)(E/2D/2)|(E/2F/2G/2A/2)(B/2A/2)|(G/2B/2E/2G/2)(3(F/2E/2D/2)|E2

